icon-themes/sifr_svg/cmd/sc_dataranges.svg

<svg viewBox="0 0 16 16" xmlns="http://www.w3.org/2000/svg"><g fill="#555753"><path d="m8 2v6h-6v.5c0 3.6 2.9 6.5 6.5 6.5h.4941406c-.5701598-.5-.9941406-1.2-.9941406-2v-2c0-.957615.5859923-1.7539427 1.3242188-2.2460938.7382262-.4921507 1.6672072-.7539062 2.6757812-.7539062s1.9.2617554 2.675781.7539062c.124219.0460938.199715.1625949.324219.2460938-.012848-.165613 0-.33 0-.5 0-3.6-2.9-6.5-6.5-6.5-.17 0-.3336709 0-.5 0zm4 7c-1.656854 0-3 .9-3 2v2c0 1.1 1.343146 2 3 2s3-.9 3-2v-2c0-1.1-1.343146-2-3-2zm0 1c1.1 0 2 .447715 2 1s-.9 1-2 1-2-.447715-2-1 .9-1 2-1zm-2 2.488281c.549483.311719 1.261587.511719 2 .511719s1.450517-.2 2-.511719v.511719c0 .552285-.9 1-2 1s-2-.447715-2-1z"/><path d="m7 7v-6c-.9 0-1.77.33-2.54.74-1.92 1.02-3.26 2.96-3.46 5.26z" opacity=".35"/></g></svg>

<svg xmlns="http://www.w3.org/2000/svg" viewBox="0 0 16 16">
  <path
     style="fill:#555753"
     d="M 8 2 L 8 8 L 2 8 C 2 8.17 2 8.33 2 8.5 C 2 12.1 4.9 15 8.5 15 C 8.67 15 8.8304227 15 8.9941406 15 C 8.4239808 14.5 8 13.8 8 13 L 8 11 C 8 10.042385 8.5859923 9.2460573 9.3242188 8.7539062 C 10.062445 8.2617555 10.991426 8 12 8 C 13.008574 8 13.9 8.2617554 14.675781 8.7539062 C 14.8 8.8 14.875496 8.9165011 15 9 C 14.987152 8.834387 15 8.67 15 8.5 C 15 4.9 12.1 2 8.5 2 C 8.33 2 8.1663291 2 8 2 z M 12 9 C 10.343146 9 9 9.9 9 11 L 9 13 C 9 14.1 10.343146 15 12 15 C 13.656854 15 15 14.1 15 13 L 15 11 C 15 9.9 13.656854 9 12 9 z M 12 10 C 13.1 10 14 10.447715 14 11 C 14 11.552285 13.1 12 12 12 C 10.9 12 10 11.552285 10 11 C 10 10.447715 10.9 10 12 10 z M 10 12.488281 C 10.549483 12.8 11.261587 13 12 13 C 12.738413 13 13.450517 12.8 14 12.488281 L 14 13 C 14 13.552285 13.1 14 12 14 C 10.9 14 10 13.552285 10 13 L 10 12.488281 z "
     />
  <path
     style="opacity:0.35;fill:#555753"
     d="M 7,7 V 1 C 6.1,1 5.23,1.33 4.46,1.74 2.54,2.76 1.2,4.7 1,7 Z"
     />
</svg>
